X:32
T:James Kelly's
C:James kelly
D:"Chasing the bear" by Jon Hicks
R:reel
Z:Transcribed by Lionel Gueganton
L:1/8
M:4/4
K:G
   BE GB c2 dc    | BE GB AD FA | BE GB [cE]e dc  | Be gf eE dc
|  BE GB c/c/c dc | BE GB AD FA | BE GB ce dc     | Be gf [e2e2] EF
|: GE B,E AF Dc   | BG EG cG Ec |1 cG Ec BA GB    | AF DF G/F/E EF 
                               :|2 cA [dA]c BA GB | AF DF [E2E2] E,2

